Obsidian-SemiLight/actions/22s/office-chart-area-stacked.svg

<svg viewBox="0 0 22 22" xmlns="http://www.w3.org/2000/svg"><g fill="#4d4d4d"><path d="m4 3v6 1 5 1 1h-1v1h1v1h1v-1h14v-1h-14v-1h.0078125.9921875 2v-.007812l.0078125.007812 1.9999995-2h1.591797l2 2h3.5 1.900391v-1h-1.900391-3.085937l-2-2h-.013672-.992188-.408203-1.005859l-2 2h-1.59375-.9921875-.0078125v-3-1-1h1 1 1.8730469.0019531l2-2 .828125-.828125 1.294922-1.2949219 2.123047 2.1230469.005859-.0039062.003906.0039062 2-2 .828125-.828125 1.041016-1.0410156-.707031-.7070313-1.041016 1.0410157-.828125.828125-1.296875 1.296875-2.126953-2.125-.001953.0019531-.001953-.0019531-1.527344 1.5273437h-6.46875v-.9921875-2zm1 3h6.460938l-.464844.4648438-.828125.828125-1.7070315 1.7070312h-1.4609375-1-1z"/><path d="m18.933594 4.0644531.066406.0664063v-.0039063zm.066406.0664063-1.041016 1.0410156-.828125.828125-2 2-.003906-.0039062-.005859.0039062-2.123047-2.1230469-1.294922 1.2949219-.828125.828125-2 2h-.0019531-1.8730469-1-1v1 1 3h.0078125 2.5859375l2-2h.40625l2-.007812.007812.007812h.00586l1.992187 1.992188 4.994141.007812zm-9 9.8691406-2 2h-3v1h14v-1h-5.400391l-2-2z" fill-opacity=".5"/></g></svg>

<svg xmlns="http://www.w3.org/2000/svg" viewBox="0 0 22 22">
  <defs id="defs3051">
    <style type="text/css" id="current-color-scheme">
      .ColorScheme-Text {
        color:#4d4d4d;
      }
      </style>
  </defs>
 <path 
     style="fill:currentColor;fill-opacity:1;stroke:none" 
     d="M 4 3 L 4 9 L 4 10 L 4 15 L 4 16 L 4 17 L 3 17 L 3 18 L 4 18 L 4 19 L 5 19 L 5 18 L 19 18 L 19 17 L 5 17 L 5 16 L 5.0078125 16 L 6 16 L 8 16 L 8 15.992188 L 8.0078125 16 L 10.007812 14 L 11.599609 14 L 13.599609 16 L 17.099609 16 L 19 16 L 19 15 L 17.099609 15 L 14.013672 15 L 12.013672 13 L 12 13 L 11.007812 13 L 10.599609 13 L 9.59375 13 L 7.59375 15 L 6 15 L 5.0078125 15 L 5 15 L 5 12 L 5 11 L 5 10 L 6 10 L 7 10 L 8.8730469 10 L 8.875 10 L 10.875 8 L 11.703125 7.171875 L 12.998047 5.8769531 L 15.121094 8 L 15.126953 7.9960938 L 15.130859 8 L 17.130859 6 L 17.958984 5.171875 L 19 4.1308594 L 18.292969 3.4238281 L 17.251953 4.4648438 L 16.423828 5.2929688 L 15.126953 6.5898438 L 13 4.4648438 L 12.998047 4.4667969 L 12.996094 4.4648438 L 11.46875 5.9921875 L 5 5.9921875 L 5 5 L 5 3 L 4 3 z M 5 6 L 11.460938 6 L 10.996094 6.4648438 L 10.167969 7.2929688 L 8.4609375 9 L 7 9 L 6 9 L 5 9 L 5 6 z "
     class="ColorScheme-Text"
     />
 <path 
     style="fill:currentColor;fill-opacity:0.5;stroke:none" 
     d="M 18.933594 4.0644531 L 19 4.1308594 L 19 4.1269531 L 18.933594 4.0644531 z M 19 4.1308594 L 17.958984 5.171875 L 17.130859 6 L 15.130859 8 L 15.126953 7.9960938 L 15.121094 8 L 12.998047 5.8769531 L 11.703125 7.171875 L 10.875 8 L 8.875 10 L 8.8730469 10 L 7 10 L 6 10 L 5 10 L 5 11 L 5 12 L 5 15 L 5.0078125 15 L 7.59375 15 L 9.59375 13 L 10 13 L 12 12.992188 L 12.007812 13 L 12.013672 13 L 14.005859 14.992188 L 19 15 L 19 4.1308594 z M 10 14 L 8 16 L 5 16 L 5 17 L 19 17 L 19 16 L 13.599609 16 L 11.599609 14 L 10 14 z "
     class="ColorScheme-Text"
     />
</svg>
